TF1/ip0.svg

<svg xmlns="http://www.w3.org/2000/svg" viewBox="0 0 798 574" preserveAspectRatio="none" width="798" height="574">
 <path d="M0,0H798V574H0Z" style="fill: white;"></path>
 <g>
  <g transform="translate(80,57)">
   <path d="M0,0H638V459H0Z" style="fill: white; stroke: black; stroke-width: 1;"></path>
   <svg x="0" y="0" overflow="hidden" width="638" height="459" viewBox="0 0 638 459">
    <g>
     <path d="M0,454h6v5h32v-3h7v3h19v-3h6v-7h7v5h19v-21h6v10h6v11h7v-5h6v-11h13v-13h13v-2h6v-29h7v-7h6v5h6v2h7v-36h6v10h6v-44h7v6h6v-44h7v2h6v-5h6v-67h13v13h6v-52h7v-18h6v18h7v-15h6v-42h6v13h7v-49h6v-39h6v-23h7v72h6v-44h7v-23h6v78h6v-83h7v13h6v26h7v15h6v-5h6v67h7v34h6v-49h6v13h7v18h6v20h7v52h6v-36h6v59h7v42h6v2h6v-2h7v49h6v-36h7v44h6v31h6v-18h7v33h6v3h7v10h6v5h6v8h7v-2h6v18h6v-8h7v13h13v2h6v8h6v-2h13v7h13v3h19v-3h6v-2h7v5h12v-3h7v3h6v-3h7v3h6" style="stroke-linejoin: miter; stroke: #000099; stroke-width: 1; fill: none;"></path>
    </g>
    <g>
     <path d="M3,459h7h6h7l6,-1h6h7h6l6,-1h7l6,-1h7l6,-1l6,-2l7,-1l6,-2l6,-2l7,-3l6,-3l7,-3l6,-5l6,-5l7,-5l6,-7l7,-8l6,-8l6,-10l7,-11l6,-12l6,-13l7,-15l6,-15l7,-16l6,-18l6,-18l7,-19l6,-19l6,-20l7,-20l6,-19l7,-19l6,-18l6,-18l7,-15l6,-14l6,-13l7,-10l6,-8l7,-6l6,-3h6l7,2l6,5l7,7l6,9l6,12l7,14l6,15l6,17l7,17l6,19l7,20l6,19l6,20l7,19l6,19l6,19l7,18l6,16l7,16l6,15l6,14l7,12l6,11l7,10l6,9l6,8l7,7l6,6l6,6l7,4l6,4l7,3l6,3l6,2l7,2l6,2l6,1l7,1l6,1l7,1h6l6,1h7h6h6l7,1h6h7h6" style="fill: none; stroke: red; stroke-width: 2;"></path>
    </g>
   </svg>
   <g>
    <g transform="translate(0,459)">
     <path d="M0,0h638M0,-17V0M16,-9V0M32,-9V0M48,-9V0M64,-9V0M80,-17V0M96,-9V0M112,-9V0M128,-9V0M144,-9V0M160,-17V0M175,-9V0M191,-9V0M207,-9V0M223,-9V0M239,-17V0M255,-9V0M271,-9V0M287,-9V0M303,-9V0M319,-17V0M335,-9V0M351,-9V0M367,-9V0M383,-9V0M399,-17V0M415,-9V0M431,-9V0M447,-9V0M463,-9V0M479,-17V0M494,-9V0M510,-9V0M526,-9V0M542,-9V0M558,-17V0M574,-9V0M590,-9V0M606,-9V0M622,-9V0M638,-17V0" style="stroke: black; stroke-width: 1;"></path>
     <g font-family="Arial" font-size="20" space="preserve" fill="black" text-anchor="middle">
      <text dy=".8em" transform="translate(0,1)">
       -4
      </text>
      <text dy=".8em" transform="translate(80,1)">
       -3
      </text>
      <text dy=".8em" transform="translate(160,1)">
       -2
      </text>
      <text dy=".8em" transform="translate(239,1)">
       -1
      </text>
      <text dy=".8em" transform="translate(319,1)">
       0
      </text>
      <text dy=".8em" transform="translate(399,1)">
       1
      </text>
      <text dy=".8em" transform="translate(479,1)">
       2
      </text>
      <text dy=".8em" transform="translate(558,1)">
       3
      </text>
      <text dy=".8em" transform="translate(638,1)">
       4
      </text>
     </g>
    </g>
    <g>
     <path d="M0,0v459M24,459H0M12,446H0M12,433H0M12,420H0M24,407H0M12,394H0M12,381H0M12,368H0M24,356H0M12,343H0M12,330H0M12,317H0M24,304H0M12,291H0M12,278H0M12,265H0M24,252H0M12,239H0M12,226H0M12,213H0M24,200H0M12,187H0M12,174H0M12,162H0M24,149H0M12,136H0M12,123H0M12,110H0M24,97H0M12,84H0M12,71H0M12,58H0M24,45H0M12,32H0M12,19H0M12,6H0" style="stroke: black; stroke-width: 1;"></path>
     <g font-family="Arial" font-size="20" space="preserve" fill="black" text-anchor="end">
      <text dy=".4em" transform="translate(-3,459)">
       0
      </text>
      <text dy=".4em" transform="translate(-3,407)">
       20
      </text>
      <text dy=".4em" transform="translate(-3,356)">
       40
      </text>
      <text dy=".4em" transform="translate(-3,304)">
       60
      </text>
      <text dy=".4em" transform="translate(-3,252)">
       80
      </text>
      <text dy=".4em" transform="translate(-3,200)">
       100
      </text>
      <text dy=".4em" transform="translate(-3,149)">
       120
      </text>
      <text dy=".4em" transform="translate(-3,97)">
       140
      </text>
      <text dy=".4em" transform="translate(-3,45)">
       160
      </text>
     </g>
    </g>
   </g>
  </g>
  <g transform="translate(622,37)" font-family="Arial" font-size="16" space="preserve" fill="black">
   <path d="M0,0H160V92H0Z" style="fill: white; stroke: black; stroke-width: 1;"></path>
   <text text-anchor="middle" dy=".4em" transform="translate(80,12)">
    g
   </text>
   <text text-anchor="start" dy=".4em" transform="translate(8,35)">
    Entries
   </text>
   <text text-anchor="end" dy=".4em" transform="translate(152,35)">
    5000
   </text>
   <text text-anchor="start" dy=".4em" transform="translate(8,58)">
    Mean
   </text>
   <text text-anchor="end" dy=".4em" transform="translate(152,58)">
    0.008147
   </text>
   <text text-anchor="start" dy=".4em" transform="translate(8,81)">
    Std Dev
   </text>
   <text text-anchor="end" dy=".4em" transform="translate(152,81)">
    1.015
   </text>
   <path d="M0,23h160" style="stroke: black; stroke-width: 1;"></path>
  </g>
  <g transform="translate(383,3)" font-family="Arial" font-size="26" space="preserve">
   <text fill="black" text-anchor="middle" dy=".4em" transform="translate(16,16)">
    g
   </text>
  </g>
 </g>
</svg>

<svg xmlns="http://www.w3.org/2000/svg" viewBox="0 0 798 574" preserveAspectRatio="none" width="798" height="574">
 <path d="M0,0H798V574H0Z" style="fill: white;"></path>
 <g>
  <g transform="translate(80,57)">
   <path d="M0,0H638V459H0Z" style="fill: white; stroke: black; stroke-width: 1;"></path>
   <svg x="0" y="0" overflow="hidden" width="638" height="459" viewBox="0 0 638 459">
    <g>
     <path d="M0,454h6v5h32v-3h7v3h19v-3h6v-7h7v5h19v-21h6v10h6v11h7v-5h6v-11h13v-13h13v-2h6v-29h7v-7h6v5h6v2h7v-36h6v10h6v-44h7v6h6v-44h7v2h6v-5h6v-67h13v13h6v-52h7v-18h6v18h7v-15h6v-42h6v13h7v-49h6v-39h6v-23h7v72h6v-44h7v-23h6v78h6v-83h7v13h6v26h7v15h6v-5h6v67h7v34h6v-49h6v13h7v18h6v20h7v52h6v-36h6v59h7v42h6v2h6v-2h7v49h6v-36h7v44h6v31h6v-18h7v33h6v3h7v10h6v5h6v8h7v-2h6v18h6v-8h7v13h13v2h6v8h6v-2h13v7h13v3h19v-3h6v-2h7v5h12v-3h7v3h6v-3h7v3h6" style="stroke-linejoin: miter; stroke: #000099; stroke-width: 1; fill: none;"></path>
    </g>
    <g>
     <path d="M3,459L10,459L16,459L23,459L29,458L35,458L42,458L48,458L54,457L61,457L67,456L74,456L80,455L86,453L93,452L99,450L105,448L112,445L118,442L125,439L131,434L137,429L144,424L150,417L157,409L163,401L169,391L176,380L182,368L188,355L195,340L201,325L208,309L214,291L220,273L227,254L233,235L239,215L246,195L252,176L259,157L265,139L271,121L278,106L284,92L290,79L297,69L303,61L310,55L316,52L322,52L329,54L335,59L342,66L348,75L354,87L361,101L367,116L373,133L380,150L386,169L393,189L399,208L405,228L412,247L418,266L424,285L431,303L437,319L444,335L450,350L456,364L463,376L469,387L476,397L482,406L488,414L495,421L501,427L507,433L514,437L520,441L527,444L533,447L539,449L546,451L552,453L558,454L565,455L571,456L578,457L584,457L590,458L597,458L603,458L609,458L616,459L622,459L629,459L635,459" style="fill: none; stroke: red; stroke-width: 2;"></path>
    </g>
   </svg>
   <g>
    <g transform="translate(0,459)">
     <path d="M0,0h638M0,-17V0M16,-9V0M32,-9V0M48,-9V0M64,-9V0M80,-17V0M96,-9V0M112,-9V0M128,-9V0M144,-9V0M160,-17V0M175,-9V0M191,-9V0M207,-9V0M223,-9V0M239,-17V0M255,-9V0M271,-9V0M287,-9V0M303,-9V0M319,-17V0M335,-9V0M351,-9V0M367,-9V0M383,-9V0M399,-17V0M415,-9V0M431,-9V0M447,-9V0M463,-9V0M479,-17V0M494,-9V0M510,-9V0M526,-9V0M542,-9V0M558,-17V0M574,-9V0M590,-9V0M606,-9V0M622,-9V0M638,-17V0" style="stroke: black; stroke-width: 1;"></path>
     <g font-family="Arial" font-size="20" space="preserve" fill="black" text-anchor="middle">
      <text dy=".8em" transform="translate(0,1)">
       -4
      </text>
      <text dy=".8em" transform="translate(80,1)">
       -3
      </text>
      <text dy=".8em" transform="translate(160,1)">
       -2
      </text>
      <text dy=".8em" transform="translate(239,1)">
       -1
      </text>
      <text dy=".8em" transform="translate(319,1)">
       0
      </text>
      <text dy=".8em" transform="translate(399,1)">
       1
      </text>
      <text dy=".8em" transform="translate(479,1)">
       2
      </text>
      <text dy=".8em" transform="translate(558,1)">
       3
      </text>
      <text dy=".8em" transform="translate(638,1)">
       4
      </text>
     </g>
    </g>
    <g>
     <path d="M0,0v459M24,459H0M12,446H0M12,433H0M12,420H0M24,407H0M12,394H0M12,381H0M12,368H0M24,356H0M12,343H0M12,330H0M12,317H0M24,304H0M12,291H0M12,278H0M12,265H0M24,252H0M12,239H0M12,226H0M12,213H0M24,200H0M12,187H0M12,174H0M12,162H0M24,149H0M12,136H0M12,123H0M12,110H0M24,97H0M12,84H0M12,71H0M12,58H0M24,45H0M12,32H0M12,19H0M12,6H0" style="stroke: black; stroke-width: 1;"></path>
     <g font-family="Arial" font-size="20" space="preserve" fill="black" text-anchor="end">
      <text dy=".4em" transform="translate(-3,459)">
       0
      </text>
      <text dy=".4em" transform="translate(-3,407)">
       20
      </text>
      <text dy=".4em" transform="translate(-3,356)">
       40
      </text>
      <text dy=".4em" transform="translate(-3,304)">
       60
      </text>
      <text dy=".4em" transform="translate(-3,252)">
       80
      </text>
      <text dy=".4em" transform="translate(-3,200)">
       100
      </text>
      <text dy=".4em" transform="translate(-3,149)">
       120
      </text>
      <text dy=".4em" transform="translate(-3,97)">
       140
      </text>
      <text dy=".4em" transform="translate(-3,45)">
       160
      </text>
     </g>
    </g>
   </g>
  </g>
  <g transform="translate(622,37)" font-family="Arial" font-size="16" space="preserve" fill="black">
   <path d="M0,0H160V92H0Z" style="fill: white; stroke: black; stroke-width: 1;"></path>
   <text text-anchor="middle" dy=".4em" transform="translate(80,12)">
    g
   </text>
   <text text-anchor="start" dy=".4em" transform="translate(8,35)">
    Entries
   </text>
   <text text-anchor="end" dy=".4em" transform="translate(152,35)">
    5000
   </text>
   <text text-anchor="start" dy=".4em" transform="translate(8,58)">
    Mean
   </text>
   <text text-anchor="end" dy=".4em" transform="translate(152,58)">
    0.008147
   </text>
   <text text-anchor="start" dy=".4em" transform="translate(8,81)">
    Std Dev
   </text>
   <text text-anchor="end" dy=".4em" transform="translate(152,81)">
    1.015
   </text>
   <path d="M0,23h160" style="stroke: black; stroke-width: 1;"></path>
  </g>
  <g transform="translate(383,3)" font-family="Arial" font-size="26" space="preserve">
   <text fill="black" text-anchor="middle" dy=".4em" transform="translate(16,16)">
    g
   </text>
  </g>
 </g>
</svg>
